polaris-icons/icons/new-icons/TransactionFeePoundMajor.svg

<svg width="20" height="20" viewBox="0 0 20 20" fill="none" xmlns="http://www.w3.org/2000/svg">
<path fill-rule="evenodd" clip-rule="evenodd" d="M4 5.25C4 4.00736 5.00736 3 6.25 3C7.22966 3 8.06309 3.62611 8.37197 4.5H11.628C11.9369 3.62611 12.7703 3 13.75 3C14.9926 3 16 4.00736 16 5.25C16 6.49264 14.9926 7.5 13.75 7.5C12.7703 7.5 11.9369 6.87389 11.628 6H8.75V11.25C8.75 11.9404 9.30964 12.5 10 12.5H10.25C10.6642 12.5 11 12.8358 11 13.25C11 13.6642 10.6642 14 10.25 14H10C8.48122 14 7.25 12.7688 7.25 11.25V7.26612C6.94876 7.41582 6.60921 7.5 6.25 7.5C5.00736 7.5 4 6.49264 4 5.25ZM6.25 4.5C5.83579 4.5 5.5 4.83579 5.5 5.25C5.5 5.66421 5.83579 6 6.25 6C6.66421 6 7 5.66421 7 5.25C7 4.83579 6.66421 4.5 6.25 4.5ZM13.75 4.5C13.3358 4.5 13 4.83579 13 5.25C13 5.66421 13.3358 6 13.75 6C14.1642 6 14.5 5.66421 14.5 5.25C14.5 4.83579 14.1642 4.5 13.75 4.5Z" fill="#4A4A4A"/>
<path d="M15 8.75C14.0335 8.75 13.25 9.5335 13.25 10.5V12.5H12.75C12.3358 12.5 12 12.8358 12 13.25C12 13.6642 12.3358 14 12.75 14H13.25V15.5H12.75C12.3358 15.5 12 15.8358 12 16.25C12 16.6642 12.3358 17 12.75 17H16.25C16.6642 17 17 16.6642 17 16.25C17 15.8358 16.6642 15.5 16.25 15.5H14.75V14H15.25C15.6642 14 16 13.6642 16 13.25C16 12.8358 15.6642 12.5 15.25 12.5H14.75V10.5C14.75 10.3619 14.8619 10.25 15 10.25H15.5V11.25C15.5 11.6642 15.8358 12 16.25 12C16.6642 12 17 11.6642 17 11.25V10C17 9.30964 16.4404 8.75 15.75 8.75H15Z" fill="#4A4A4A"/>
</svg>

<svg viewBox="0 0 20 20" xmlns="http://www.w3.org/2000/svg"><path fill-rule="evenodd" d="M4 5.25a2.25 2.25 0 0 1 4.372-.75h3.256a2.251 2.251 0 1 1 0 1.5h-2.878v5.25c0 .69.56 1.25 1.25 1.25h.25a.75.75 0 0 1 0 1.5h-.25a2.75 2.75 0 0 1-2.75-2.75v-3.984a2.25 2.25 0 0 1-3.25-2.016Zm2.25-.75a.75.75 0 1 0 0 1.5.75.75 0 0 0 0-1.5Zm7.5 0a.75.75 0 1 0 0 1.5.75.75 0 0 0 0-1.5Z" fill="#5C5F62"/><path d="M15 8.75a1.75 1.75 0 0 0-1.75 1.75v2h-.5a.75.75 0 0 0 0 1.5h.5v1.5h-.5a.75.75 0 0 0 0 1.5h3.5a.75.75 0 0 0 0-1.5h-1.5v-1.5h.5a.75.75 0 0 0 0-1.5h-.5v-2a.25.25 0 0 1 .25-.25h.5v1a.75.75 0 0 0 1.5 0v-1.25c0-.69-.56-1.25-1.25-1.25h-.75Z" fill="#5C5F62"/></svg>
